packages/foundations/assets/icons/functional/images/human/toys_12.svg

<svg width="12" height="12" viewBox="0 0 12 12" fill="none" xmlns="http://www.w3.org/2000/svg">
<g clip-path="url(#clip0_232_265)">
<path fill-rule="evenodd" clip-rule="evenodd" d="M8.40021 1.19995C9.72569 1.19995 10.8002 2.27447 10.8002 3.59995C10.8002 4.18824 10.6213 4.73302 10.1336 5.25895C10.1712 5.45392 10.1934 5.70092 10.2002 5.99995C10.2002 7.20771 9.68683 8.33413 8.80589 9.12539C8.55937 9.34682 8.18001 9.32648 7.95858 9.07996C7.73715 8.83343 7.7575 8.45407 8.00402 8.23264C8.63416 7.66665 9.00021 6.8635 9.00021 5.99995C9.00021 5.78192 8.98147 5.44578 8.7834 4.81C8.88475 4.73954 8.995 4.65774 9.11414 4.56461C9.4181 4.3391 9.60021 3.98524 9.60021 3.59995C9.60021 2.93721 9.06284 2.41164 8.40021 2.39995C7.92776 2.39162 7.50491 2.66338 7.13165 3.21524C6.69303 3.07171 6.31589 2.99995 6.00021 2.99995C5.52669 2.99995 5.29467 3.0852 4.91063 3.21524C4.54884 2.61156 4.06787 2.39995 3.67521 2.39995C2.97104 2.39995 2.40021 2.97079 2.40021 3.67495C2.40021 4.03189 2.54716 4.36348 2.79967 4.60128C2.9507 4.72703 3.07684 4.82965 3.17808 4.90913C3.04122 5.42515 2.98214 5.79582 3.00084 6.02113C3.09862 6.00717 3.19857 5.99995 3.30021 5.99995C3.95989 5.99995 4.54853 6.30413 4.93352 6.77989C5.00424 6.75092 5.085 6.74031 5.17073 6.75501L5.29467 6.78703C5.4587 6.82443 5.53303 6.77005 5.54752 6.64859L5.55476 6.52808C5.62065 6.02391 6.37976 6.02391 6.44565 6.52808L6.453 6.64922C6.46606 6.75729 6.53002 6.80539 6.63531 6.80539C6.66209 6.80539 6.71657 6.7906 6.79875 6.76103C7.22733 6.65514 7.54841 7.19595 7.2146 7.52191C6.90451 7.8247 6.59941 7.8655 6.2504 7.74475C6.15127 7.70662 6.06788 7.67502 6.00021 7.64995C5.71918 7.77767 5.47848 7.80804 5.37927 7.80778C5.42241 8.07586 5.40021 8.31199 5.32199 8.66972L6.00577 9.04922C6.09802 9.01729 6.19709 8.99995 6.30021 8.99995C6.79726 8.99995 7.20021 9.40289 7.20021 9.89995C7.20021 10.397 6.79726 10.8 6.30021 10.8C5.87173 10.8 5.51319 10.5005 5.42241 10.0995L4.67726 9.68547C4.30859 10.0059 3.82705 10.2 3.30021 10.2C2.14041 10.2 1.20021 9.25975 1.20021 8.09995C1.20021 7.50657 1.44632 6.97066 1.84203 6.58875C1.81401 6.39528 1.80021 6.19842 1.80021 5.99995C1.80021 5.79503 1.81315 5.57274 1.85181 5.34655C1.48173 4.95009 1.18783 4.3133 1.20021 3.67495C1.20021 2.30805 2.3083 1.19995 3.67521 1.19995C4.29341 1.19995 4.84895 1.40957 5.34741 1.85095C5.62695 1.81604 5.77238 1.79995 6.00021 1.79995C6.22804 1.79995 6.41843 1.81712 6.74061 1.86595C7.12745 1.45897 7.82005 1.19995 8.40021 1.19995ZM4.50021 4.49995C4.83158 4.49995 5.10021 4.76858 5.10021 5.09995C5.10021 5.43132 4.83158 5.69995 4.50021 5.69995C4.16883 5.69995 3.90021 5.43132 3.90021 5.09995C3.90021 4.76858 4.16883 4.49995 4.50021 4.49995ZM7.50021 4.49995C7.83158 4.49995 8.10021 4.76858 8.10021 5.09995C8.10021 5.43132 7.83158 5.69995 7.50021 5.69995C7.16884 5.69995 6.90021 5.43132 6.90021 5.09995C6.90021 4.76858 7.16884 4.49995 7.50021 4.49995ZM3.30021 7.19995C2.80315 7.19995 2.40021 7.6029 2.40021 8.09995C2.40021 8.59701 2.80315 8.99995 3.30021 8.99995C3.79726 8.99995 4.20021 8.59701 4.20021 8.09995C4.20021 7.6029 3.79726 7.19995 3.30021 7.19995Z" fill="#1A1C1F"/>
</g>
<defs>
<clipPath id="clip0_232_265">
<rect width="12" height="12" fill="white"/>
</clipPath>
</defs>
</svg>

<svg xmlns="http://www.w3.org/2000/svg" width="12" height="12" fill="none"><g clip-path="url(#a)"><path fill="#1A1C1F" fill-rule="evenodd" d="M8.4 1.2a2.4 2.4 0 0 1 2.4 2.4c0 .588-.179 1.133-.666 1.659q.056.293.066.741a4.2 4.2 0 0 1-1.394 3.125.6.6 0 1 1-.802-.892A3 3 0 0 0 9 6c0-.218-.019-.554-.217-1.19q.153-.105.331-.245c.304-.226.486-.58.486-.965 0-.663-.537-1.188-1.2-1.2q-.708-.013-1.268.815Q6.474 3 6 3c-.473 0-.705.085-1.09.215-.361-.603-.842-.815-1.235-.815A1.275 1.275 0 0 0 2.8 4.601q.226.19.378.308-.206.774-.177 1.112Q3.148 6 3.3 6c.659 0 1.248.304 1.633.78a.43.43 0 0 1 .237-.025l.124.032c.164.037.238-.017.253-.138l.007-.12c.066-.505.825-.505.89 0l.008.12c.013.108.077.156.182.156a.6.6 0 0 0 .164-.044c.428-.106.75.435.416.761-.31.303-.616.344-.965.223L6 7.65a1.6 1.6 0 0 1-.62.158c.042.268.02.504-.058.862l.684.38A.9.9 0 0 1 7.2 9.9a.9.9 0 0 1-1.778.2l-.745-.414a2.1 2.1 0 0 1-2.835-3.097 4.1 4.1 0 0 1 .01-1.242c-.37-.397-.664-1.034-.652-1.672a2.475 2.475 0 0 1 4.147-1.824c.28-.035.425-.051.653-.051s.418.017.74.066C7.128 1.459 7.82 1.2 8.4 1.2M4.5 4.5a.6.6 0 1 1 0 1.2.6.6 0 0 1 0-1.2m3 0a.6.6 0 1 1 0 1.2.6.6 0 0 1 0-1.2M3.3 7.2a.9.9 0 1 0 0 1.8.9.9 0 0 0 0-1.8" clip-rule="evenodd"/></g><defs><clipPath id="a"><path fill="#fff" d="M0 0h12v12H0z"/></clipPath></defs></svg>
